assets/remove_account_warning.svg

<svg xmlns="http://www.w3.org/2000/svg" width="211" height="211" fill="none" viewBox="0 0 211 211">
    <mask id="3ign0ficfa" width="211" height="211" x="0" y="0" maskUnits="userSpaceOnUse">
        <path fill="#fff" d="M105.5 211c58.266 0 105.5-47.234 105.5-105.5S163.766 0 105.5 0 0 47.234 0 105.5 47.234 211 105.5 211z"/>
    </mask>
    <g mask="url(#3ign0ficfa)">
        <path fill="#fff" d="M105.5 211c58.266 0 105.5-47.234 105.5-105.5S163.766 0 105.5 0 0 47.234 0 105.5 47.234 211 105.5 211z"/>
    </g>
    <mask id="og6xk7jpub" width="211" height="211" x="0" y="0" maskUnits="userSpaceOnUse">
        <path fill="#fff" d="M105.5 211c58.266 0 105.5-47.234 105.5-105.5S163.766 0 105.5 0 0 47.234 0 105.5 47.234 211 105.5 211z"/>
    </mask>
    <defs>
        <linearGradient id="paint0_linear" x1="-99.358" x2="211" y1="-101.737" y2="211" gradientUnits="userSpaceOnUse">
            <stop stop-color="#FAF4EA"/>
            <stop offset="1" stop-color="#FFA600"/>
        </linearGradient>
        <linearGradient id="paint1_linear" x1="105.804" x2="105.804" y1="47.603" y2="309.174" gradientUnits="userSpaceOnUse">
            <stop stop-color="#FFF8EF"/>
            <stop offset="1" stop-color="#FFFCF8" stop-opacity=".06"/>
        </linearGradient>
        <linearGradient id="paint2_linear" x1="87.974" x2="115.638" y1="97.345" y2="152.041" gradientUnits="userSpaceOnUse">
            <stop stop-color="#FFDA4E"/>
            <stop offset="1" stop-color="#FFB326"/>
        </linearGradient>
    </defs>
    <g mask="url(#og6xk7jpub)">
        <path fill="url(#paint0_linear)" d="M105.5 211c58.266 0 105.5-47.234 105.5-105.5S163.766 0 105.5 0 0 47.234 0 105.5 47.234 211 105.5 211z" opacity=".523"/>
        <path fill="url(#paint1_linear)" d="M151.466 48H59.534C49.85 48 42 56.204 42 66.324v145.352C42 221.796 49.85 230 59.534 230h91.932c9.684 0 17.534-8.204 17.534-18.324V66.324C169 56.204 161.15 48 151.466 48z" opacity=".777"/>
        <path fill="url(#paint2_linear)" d="M110.208 84.736l31.18 57.522c1.367 2.522.431 5.675-2.092 7.043-.76.412-1.61.627-2.475.627h-62.36c-2.87 0-5.195-2.325-5.195-5.194 0-.865.215-1.716.627-2.476l31.181-57.522c1.367-2.522 4.52-3.459 7.042-2.092.885.48 1.612 1.207 2.092 2.092z" opacity=".777"/>
        <path fill="#2B2B2B" fill-rule="evenodd" d="M105.416 108.396c1.934 0 3.503 1.569 3.503 3.504 0 .07-.002.139-.006.209l-.835 13.968c-.084 1.409-1.251 2.508-2.662 2.508-1.412 0-2.579-1.099-2.663-2.508l-.835-13.968c-.115-1.932 1.357-3.591 3.289-3.706.069-.004.139-.007.209-.007z" clip-rule="evenodd"/>
        <path fill="#2B2B2B" d="M105.356 136.378c1.5 0 2.715-1.216 2.715-2.715 0-1.5-1.215-2.716-2.715-2.716-1.5 0-2.715 1.216-2.715 2.716 0 1.499 1.215 2.715 2.715 2.715z"/>
    </g>
</svg>

<svg width="211" height="211" viewBox="0 0 211 211" fill="none" xmlns="http://www.w3.org/2000/svg">
    <defs>
        <linearGradient id="paint0_linear_1619_1310" x1="-99.3582" y1="-101.737" x2="211" y2="211" gradientUnits="userSpaceOnUse">
            <stop stop-color="#FAF4EA"/>
            <stop offset="1" stop-color="#8B5EDB"/>
        </linearGradient>
        <linearGradient id="paint1_linear_1619_1310" x1="69.2656" y1="70.0329" x2="101.6" y2="151.532" gradientUnits="userSpaceOnUse">
            <stop stop-color="#FFDA4E"/>
            <stop offset="1" stop-color="#FFD382"/>
        </linearGradient>
    </defs>
    <mask id="mask0_1619_1310" style="mask-type:alpha" maskUnits="userSpaceOnUse" x="0" y="0" width="211" height="211">
<path d="M105.5 211C163.766 211 211 163.766 211 105.5C211 47.234 163.766 0 105.5 0C47.234 0 0 47.234 0 105.5C0 163.766 47.234 211 105.5 211Z" fill="white"/>
</mask>
<g mask="url(#mask0_1619_1310)">
<path d="M105.5 211C163.766 211 211 163.766 211 105.5C211 47.234 163.766 0 105.5 0C47.234 0 0 47.234 0 105.5C0 163.766 47.234 211 105.5 211Z" fill="white"/>
</g>
<mask id="mask1_1619_1310" style="mask-type:alpha" maskUnits="userSpaceOnUse" x="0" y="0" width="211" height="211">
<path d="M105.5 211C163.766 211 211 163.766 211 105.5C211 47.234 163.766 0 105.5 0C47.234 0 0 47.234 0 105.5C0 163.766 47.234 211 105.5 211Z" fill="white"/>
</mask>
<g mask="url(#mask1_1619_1310)">
<path opacity="0.522915" d="M105.5 211C163.766 211 211 163.766 211 105.5C211 47.234 163.766 0 105.5 0C47.234 0 0 47.234 0 105.5C0 163.766 47.234 211 105.5 211Z" fill="url(#paint0_linear_1619_1310)"/>
<path opacity="0.777064" d="M151.466 48H59.5336C49.8501 48 42 56.2038 42 66.3238V211.676C42 221.796 49.8501 230 59.5336 230H151.466C161.15 230 169 221.796 169 211.676V66.3238C169 56.2038 161.15 48 151.466 48Z" fill="#F0F1F6"/>
<path d="M110.208 84.7358L141.388 142.258C142.755 144.78 141.819 147.933 139.296 149.301C138.536 149.713 137.686 149.928 136.821 149.928H74.4604C71.5914 149.928 69.2656 147.603 69.2656 144.734C69.2656 143.869 69.4814 143.018 69.8934 142.258L101.074 84.7358C102.441 82.2136 105.594 81.2772 108.116 82.6444C109.001 83.1242 109.728 83.8508 110.208 84.7358Z" fill="url(#paint1_linear_1619_1310)"/>
<path fill-rule="evenodd" clip-rule="evenodd" d="M105.416 108.396C107.35 108.396 108.919 109.965 108.919 111.9C108.919 111.97 108.917 112.039 108.913 112.109L108.078 126.077C107.994 127.486 106.827 128.585 105.416 128.585C104.004 128.585 102.837 127.486 102.753 126.077L101.918 112.109C101.803 110.177 103.275 108.518 105.207 108.403C105.276 108.399 105.346 108.396 105.416 108.396Z" fill="#081132"/>
<path d="M105.356 136.378C106.856 136.378 108.071 135.162 108.071 133.663C108.071 132.163 106.856 130.947 105.356 130.947C103.856 130.947 102.641 132.163 102.641 133.663C102.641 135.162 103.856 136.378 105.356 136.378Z" fill="#081132"/>
</g>
</svg>
